openframe-frontend-core/src/components/icons-v2/brand-logos/framer.svg

<svg width="24" height="24" viewBox="0 0 24 24" fill="none" xmlns="http://www.w3.org/2000/svg">
<path d="M4.87499 14.378V14.0001C4.87499 13.3788 5.37867 12.8751 5.99999 12.8751C6.62131 12.8751 7.12499 13.3788 7.12499 14.0001V14.378C7.12499 14.4773 7.16474 14.5729 7.23485 14.6432L10.875 18.2833V15.0006C10.875 14.3793 11.3787 13.8756 12 13.8756C12.6213 13.8756 13.125 14.3793 13.125 15.0006V21.0006C13.1248 21.4553 12.8507 21.865 12.4307 22.0391C12.0104 22.2132 11.5263 22.1175 11.2046 21.796L5.64403 16.2354C5.15175 15.7432 4.87499 15.0742 4.87499 14.378Z" fill="#888888"/>
<path d="M7.12499 13.875H15.2842L11.5342 10.125H7.12499V13.875ZM12.4658 7.875H16.875V4.125H8.71581L12.4658 7.875ZM19.125 7.99951C19.125 9.17312 18.1731 10.125 16.9995 10.125H14.7158L18.7954 14.2046C19.1171 14.5263 19.2141 15.0103 19.04 15.4307C18.8659 15.851 18.455 16.125 18 16.125H7.00048C5.82687 16.125 4.87499 15.1737 4.87499 14.0001L4.87499 10.0005C4.87499 8.82688 5.82687 7.875 7.00048 7.875H9.28417L5.20458 3.79541C4.88286 3.47369 4.78589 2.98969 4.95995 2.56934C5.13408 2.14895 5.54497 1.875 5.99999 1.875H16.9995C18.1731 1.875 19.125 2.82688 19.125 4.00049V7.99951Z" fill="#888888"/>
</svg>

<svg xmlns="http://www.w3.org/2000/svg" width="24" height="24" fill="none" viewBox="0 0 24 24">
  <path fill="#888" d="M4.875 14.378V14a1.125 1.125 0 0 1 2.25 0v.378c0 .1.04.195.11.265l3.64 3.64v-3.282a1.125 1.125 0 0 1 2.25 0v6a1.125 1.125 0 0 1-1.92.795l-5.561-5.56a2.628 2.628 0 0 1-.769-1.858Z"/>
  <path fill="#888" d="M7.125 13.875h8.16l-3.75-3.75h-4.41v3.75Zm5.34-6h4.41v-3.75h-8.16l3.75 3.75Zm6.66.125A2.126 2.126 0 0 1 17 10.125h-2.284l4.08 4.08a1.125 1.125 0 0 1-.796 1.92H7A2.125 2.125 0 0 1 4.875 14v-4c0-1.173.952-2.125 2.125-2.125h2.284l-4.08-4.08A1.126 1.126 0 0 1 6 1.875h11c1.173 0 2.125.952 2.125 2.125v4Z"/>
</svg>
